icons/RizumPhotoshop_idle.svg

<?xml version="1.0" encoding="utf-8"?>
<!-- Generator: Adobe Illustrator 27.0.1, SVG Export Plug-In . SVG Version: 6.00 Build 0)  -->
<svg version="1.1" id="Layer_1" xmlns="http://www.w3.org/2000/svg" xmlns:xlink="http://www.w3.org/1999/xlink" x="0px" y="0px"
	 viewBox="0 0 16 16" style="enable-background:new 0 0 16 16;" xml:space="preserve">
<style type="text/css">
	.st0{fill:#CCCCCC;}
	.st1{fill:#333333;}
</style>
<path class="st0" d="M13.2,0H2.8C1.2,0,0,1.2,0,2.8l0,0v9.4C0,13.8,1.2,15,2.8,15h10.4c1.5,0,2.8-1.2,2.8-2.8l0,0V2.8
	C16,1.2,14.8,0,13.2,0z"/>
<path class="st1" d="M8.7,5.4C8.5,5.1,8.4,4.9,8.2,4.7C7.9,4.4,7.6,4.2,7.3,4.1C6.8,4,6.4,3.9,5.9,3.9c-0.2,0-0.4,0-0.6,0l-0.6,0
	l-0.5,0c-0.2,0-0.3,0-0.4,0c0,0-0.1,0-0.1,0.1v6.9c0,0.1,0,0.1,0.1,0.1h1.3c0,0,0.1,0,0.1-0.1c0,0,0,0,0,0V8.7c0.1,0,0.2,0,0.3,0
	s0.2,0,0.3,0c0.5,0,1-0.1,1.5-0.2c0.4-0.2,0.8-0.4,1.1-0.8c0.3-0.4,0.4-0.9,0.4-1.4C8.8,6,8.8,5.7,8.7,5.4z M7.1,7
	C7,7.2,6.8,7.3,6.6,7.3C6.3,7.4,6.1,7.5,5.8,7.5H5.5c-0.1,0-0.2,0-0.3,0V5.2c0.1,0,0.1,0,0.3,0s0.3,0,0.5,0c0.3,0,0.5,0,0.8,0.1
	c0.2,0.1,0.4,0.2,0.5,0.4c0.1,0.2,0.2,0.4,0.2,0.6C7.4,6.6,7.3,6.8,7.1,7z"/>
<path class="st1" d="M12.9,10.3c-0.2,0.3-0.4,0.5-0.7,0.6c-0.4,0.2-0.8,0.2-1.2,0.2c-0.3,0-0.6,0-0.9-0.1c-0.2,0-0.5-0.1-0.7-0.2
	c0,0-0.1-0.1-0.1-0.1V9.5c0,0,0,0,0-0.1c0,0,0,0,0.1,0c0.3,0.2,0.5,0.3,0.8,0.3c0.3,0.1,0.5,0.1,0.8,0.1c0.2,0,0.4,0,0.6-0.1
	c0.1,0,0.2-0.2,0.2-0.3c0-0.1-0.1-0.2-0.2-0.3c-0.2-0.1-0.4-0.2-0.7-0.3c-0.3-0.1-0.7-0.3-0.9-0.5C9.7,8.3,9.6,8.1,9.5,7.9
	C9.4,7.7,9.3,7.4,9.3,7.2c0-0.3,0.1-0.6,0.2-0.8c0.2-0.3,0.4-0.5,0.7-0.6c0.4-0.2,0.8-0.2,1.2-0.2c0.3,0,0.6,0,0.8,0.1
	c0.2,0,0.4,0.1,0.6,0.2c0,0,0.1,0,0.1,0.1c0,0,0,0.1,0,0.1V7c0,0,0,0,0,0.1c0,0-0.1,0-0.1,0c-0.2-0.1-0.4-0.2-0.6-0.2
	c-0.2-0.1-0.5-0.1-0.7-0.1c-0.1,0-0.3,0-0.4,0c-0.1,0-0.2,0.1-0.2,0.1c0,0.1-0.1,0.1-0.1,0.2c0,0.1,0,0.1,0.1,0.2
	c0.1,0.1,0.1,0.1,0.2,0.2c0.2,0.1,0.3,0.2,0.5,0.2c0.4,0.1,0.7,0.3,1,0.5c0.2,0.1,0.4,0.3,0.5,0.6c0.1,0.2,0.2,0.4,0.2,0.7
	C13.2,9.7,13.1,10,12.9,10.3z"/>
<polygon class="st1" points="6,8.7 7.2,11 8.3,11 8.7,11 7.3,8.5 6,8.4 "/>
</svg>

<?xml version="1.0" encoding="UTF-8" standalone="no"?>
<!DOCTYPE svg PUBLIC "-//W3C//DTD SVG 1.1//EN" "http://www.w3.org/Graphics/SVG/1.1/DTD/svg11.dtd">
<svg width="100%" height="100%" viewBox="0 0 24 16" version="1.1" xmlns="http://www.w3.org/2000/svg" xmlns:xlink="http://www.w3.org/1999/xlink" xml:space="preserve" xmlns:serif="http://www.serif.com/" style="fill-rule:evenodd;clip-rule:evenodd;stroke-linejoin:round;stroke-miterlimit:2;">
    <g id="ICONS">
        <path d="M13.2,1L2.8,1C1.2,1 0,2.2 0,3.8L0,13.2C0,14.7 1.2,16 2.8,16L13.2,16C14.7,16 16,14.8 16,13.2L16,3.8C16,2.3 14.8,1 13.2,1Z" style="fill:rgb(204,204,204);fill-rule:nonzero;"/>
    </g>
    <g transform="matrix(1,0,0,1,0,1.03704)">
        <path d="M8.7,5.4C8.5,5.1 8.4,4.9 8.2,4.7C7.9,4.4 7.6,4.2 7.3,4.1C6.8,4 6.4,3.9 5.9,3.9L3.8,3.9C3.8,3.9 3.7,3.9 3.7,4L3.7,10.9C3.7,11 3.7,11 3.8,11L5.1,11C5.1,11 5.2,11 5.2,10.9L5.2,8.7L5.8,8.7C6.3,8.7 6.8,8.6 7.3,8.5C7.7,8.3 8.1,8.1 8.4,7.7C8.7,7.3 8.8,6.8 8.8,6.3C8.8,6 8.8,5.7 8.7,5.4ZM7.1,7C7,7.2 6.8,7.3 6.6,7.3C6.3,7.4 6.1,7.5 5.8,7.5L5.2,7.5L5.2,5.2L6,5.2C6.3,5.2 6.5,5.2 6.8,5.3C7,5.4 7.2,5.5 7.3,5.7C7.4,5.9 7.5,6.1 7.5,6.3C7.4,6.6 7.3,6.8 7.1,7Z" style="fill:rgb(51,51,51);fill-rule:nonzero;"/>
    </g>
    <g transform="matrix(1,0,0,1,0,1.03704)">
        <path d="M12.9,10.3C12.7,10.6 12.5,10.8 12.2,10.9C11.8,11.1 11.4,11.1 11,11.1C10.7,11.1 10.4,11.1 10.1,11C9.9,11 9.6,10.9 9.4,10.8L9.3,10.7L9.3,9.4L9.4,9.4C9.7,9.6 9.9,9.7 10.2,9.7C10.5,9.8 10.7,9.8 11,9.8C11.2,9.8 11.4,9.8 11.6,9.7C11.7,9.7 11.8,9.5 11.8,9.4C11.8,9.3 11.7,9.2 11.6,9.1C11.4,9 11.2,8.9 10.9,8.8C10.6,8.7 10.2,8.5 10,8.3C9.7,8.3 9.6,8.1 9.5,7.9C9.4,7.7 9.3,7.4 9.3,7.2C9.3,6.9 9.4,6.6 9.5,6.4C9.7,6.1 9.9,5.9 10.2,5.8C10.6,5.6 11,5.6 11.4,5.6C11.7,5.6 12,5.6 12.2,5.7C12.4,5.7 12.6,5.8 12.8,5.9C12.8,5.9 12.9,5.9 12.9,6L12.9,7.1L12.8,7.1C12.6,7 12.4,6.9 12.2,6.9C12,6.8 11.7,6.8 11.5,6.8L11.1,6.8C11,6.8 10.9,6.9 10.9,6.9C10.9,7 10.8,7 10.8,7.1C10.8,7.2 10.8,7.2 10.9,7.3C11,7.4 11,7.4 11.1,7.5C11.3,7.6 11.4,7.7 11.6,7.7C12,7.8 12.3,8 12.6,8.2C12.8,8.3 13,8.5 13.1,8.8C13.2,9 13.3,9.2 13.3,9.5C13.2,9.7 13.1,10 12.9,10.3Z" style="fill:rgb(51,51,51);fill-rule:nonzero;"/>
    </g>
    <g transform="matrix(1,0,0,1,0,1.03704)">
        <path d="M6,8.7L7.2,11L8.7,11L7.3,8.5L6,8.4L6,8.7Z" style="fill:rgb(51,51,51);fill-rule:nonzero;"/>
    </g>
</svg>
